X: 35
T: REELS: Walter Sammon's Grandma Set
T: Walter Sammon's Grandmother
C: C: Trad.; S: ThZCh + Patrick Street / Martin Hayes / Mary Bergin
C: Set Leaders: Oliushka, Anton
Z: Anton Zille ed.; shanachie / Bregolas / Bregolas at The Session
N: https://thesession.org/members/26966/sets/76523
R: Reel
M: 4/4
L: 1/8
Q: 1/2=100
K: Dmaj
FAAB A2dB|AFDE FEE2|FAAB A2dB|AFEG FDD2|
FAAB ABdB|AFDE FEE2|FAAB A2dB|AFEG FDD2||
FAdA BAdA|FAdA BEE2|FAdA BAdB|AFEG FDD2|
FAdA BAdA|FAdA BEE2|dcBA BcdB|AFEG FDD2||
T: Broken Pledge (Ddor)
K: Ddor
|:dcAG ADDB|cAGE EDCE|DEFG Addc|A/B/A Gc Aefe|
dcAG E/F/G AB|cAGE EDCE|DEFG Addc|A/B/A GE ED D2:||
|:dcAG Acde|f2 df ecAB|cAGE G2 cd|ec~c2 eage|
dcAG Acde|~f2 df ecAG|~F3E FGAB|cAGE ED D2:||
T: Blackhaired Lass
K: Amix
d|cAAB cdec|d2 gd BGGd|cA~A2 cdec|dfec AddB|
cA~A2 Acec|dBgd BGGd|cA~A2 B/c/d ec|dfec A3 A||
B/c/d ef g2 eg|~f2 df gfed|B/c/d ef geag|fdec A2~A2|
B/c/d ef g2 e/f/g|fedc defg|afge fdec|dfec A3||

